X:0406
T:92nd, The / Marquis of Huntly's Highlanders, The
P:Marquis of Huntly's Highlanders
C:Traditional
R:Strathspey (8x24)
B:RSCDS 4-6
Z:Anselm Lingnau <anselm@strathspey.org>
M:C
L:1/8
K:A
f |\
"A"e>A c/B/A e>A c>A | "G"B<=GG>B d<GG>B |\ 
"A"e>A c/B/A e>A c>A | "Em"B>=G "G"E>d "A"c<AA>d | 
"A"e>A c/B/A e>A c>A | "G"B<=GG>B d<GG>B |\ 
"A"e>A c/B/A e>A c>A | "Em"B>=G "G"E>d "A"c<AA>d || 
|: B |\
"A"A<ag>a "D"f>a"A"e>d | "G"B<=gd>=c B<=GG>B |\ 
"A"A<ag>a e>A c>A | "D"f<a"E7"e>d "A"c<AA>B | 
"A"A<ag>a "D"f>a"A"e>d | "G"B<=gd>=c B<=GG>B |\ 
"A"c>A e>A a>A e>A | "G"d>B =G>B "A"c<AA :| 
